X:28
T:Barney Brallaghan
T:Barney Brannigan
R:slip jig
Z:id:hn-slipjig-28
M:9/8
K:D
F2A ABA ABA|F2A AFA d2f|F2A ABA ABA|Bcd e2d cBA:|
|:f2a f2a fed|f2a f2a gfe|f2a f2a fed|g2f e2d cBA:|
|:f3 a3 d3|g2f e2d cBA|1 fed edc d2B|A2B A2G FED:|2 fga efg d2B|A2B A2G FED||
<end>
<start>
